X:13
T:Concertina, The
S:The Session: https://thesession.org/tunes/18#setting55323
C:Traditional
R:reel
K:D
M:4/4
L:1/8
Q:1/4=120
FG|: "D"A2FA BAFA| A2FA BAFA| "A7"B2BA B2BA| B2BA BAFA|
| "D" A2FA BAFA| A2FA BAFA| FABc "G"d2dA| "A7"BAFE "D"D2 FG:|
|: "D" Addd Addd| AddA BAFA| "Em"B2BA B2BA| "A7"B2BA BAFA|
| "D"Addd Addd| AddA BAFA| FABc "G"d2dA|1 "A7"BAFE "D"D2 FG:|2  "A7"BAFE "D"D4|

